packages/merlin-www-assets/imports/brides/icons/card-image-podcast.svg

<svg viewBox="0 0 16 16" xmlns="http://www.w3.org/2000/svg"><path d="m8.29999999 9.1h-.59999998c-1.09999998 0-1.99999996-.9-1.99999996-2v-5.1c0-1.1.89999998-2 1.99999996-2h.59999998c1.09999998 0 2.00000001.9 2.00000001 2v5.1c0 1.1-.90000003 2-2.00000001 2zm3.09999991-4.5v2.7c0 1.7-1.39999994 3.1-3.09999991 3.1h-.59999998c-1.69999997-.1-3.09999994-1.4-3.09999994-3.2v-2.6h-1.19999997v3c0 2.2 1.79999996 3.9 3.99999991 3.9h1.19999998c2.19999991 0 3.99999991-1.7 3.99999991-3.9v-3zm-2.79999991 6.2h-1.19999998v4.6h1.09999998v-4.6zm1.70000001 4.1h-4.59999995v1.1h4.59999995z"/></svg>

<svg xmlns="http://www.w3.org/2000/svg" viewBox="0 0 16 16"><title>podcast</title>
  <path d="M8.29999999,9.1 L7.70000001,9.1 C6.60000003,9.1 5.70000005,8.2 5.70000005,7.1 L5.70000005,2 C5.70000005,0.9 6.60000003,0 7.70000001,0 L8.29999999,0 C9.39999997,0 10.3,0.9 10.3,2 L10.3,7.1 C10.3,8.2 9.39999997,9.1 8.29999999,9.1 Z M11.3999999,4.6 L11.3999999,7.3 C11.3999999,9 9.99999996,10.4 8.29999999,10.4 L7.70000001,10.4 C6.00000004,10.3 4.60000007,9 4.60000007,7.2 L4.60000007,4.6 L3.4000001,4.6 L3.4000001,7.6 C3.4000001,9.8 5.20000006,11.5 7.40000001,11.5 L8.59999999,11.5 C10.7999999,11.5 12.5999999,9.8 12.5999999,7.6 L12.5999999,4.6 L11.3999999,4.6 Z M8.59999999,10.8 L7.40000001,10.8 L7.40000001,15.4 L8.49999999,15.4 L8.49999999,10.8 L8.59999999,10.8 Z M10.3,14.9 L5.70000005,14.9 L5.70000005,16 L10.3,16 L10.3,14.9 Z"/>
</svg>
